public/man2.svg

<svg width="140" height="144" viewBox="0 0 140 144" fill="none" xmlns="http://www.w3.org/2000/svg">
<path d="M103.777 33.7709C105.662 25.5027 104.079 21.6224 103.051 20.7158C100.271 21.6224 94.4205 24.5235 93.2601 28.8752C92.0996 33.2269 95.0761 46.0054 97.252 53.5L99.5 48.5L101.5 46.5C101.923 43.9011 101.891 42.0391 103.777 33.7709Z" fill="black"/>
<path d="M36.9752 33.7709C35.0895 25.5027 36.673 21.6224 37.7005 20.7158C40.4808 21.6224 46.3314 24.5235 47.4919 28.8752C48.6523 33.2269 44.5908 49.304 42.4149 56.7986L41.6896 52.8095L40.6017 51.9029C40.1786 49.304 38.861 42.0391 36.9752 33.7709Z" fill="black"/>
<path d="M86.5 105.404C84.1 103.004 83.3333 92.4043 83.5 88.4043L56 86.4043C56.8 93.2043 55 102.404 52.5 105.404C73.7 119.404 84 112.071 86.5 105.404Z" fill="#F3B29B"/>
<path d="M55.5 97.4043C56.5 91.9043 56 88.9043 56 86.4043H83V89.9043C78.5 97.4043 63.6667 97.9043 55.5 97.4043Z" fill="#3B2140"/>
<path fill-rule="evenodd" clip-rule="evenodd" d="M70.5 16.4043C54.7971 16.4043 42.3616 29.6734 43.3792 45.3434L43.575 48.3597L42.5005 47.4045C37.1672 44.4045 27.4005 42.1045 31.0005 56.9045C33.4729 67.0689 39.7028 70.4254 45.0905 70.991C46.6806 83.7139 57.5185 93.4043 70.5 93.4043C83.4815 93.4043 94.3194 83.7139 95.9095 70.991C101.297 70.4254 107.527 67.0689 110 56.9045C113.6 42.1045 103.833 44.4045 98.4995 47.4045L97.425 48.3597L97.6208 45.3433C98.6384 29.6734 86.2029 16.4043 70.5 16.4043Z" fill="#F3B29B"/>
<path fill-rule="evenodd" clip-rule="evenodd" d="M102.719 52.7539C103.754 51.6254 104.925 50.6068 105.693 50.0096L106.307 50.799C105.575 51.3685 104.446 52.3498 103.456 53.4297C102.961 53.9694 102.508 54.5258 102.157 55.0612C101.962 55.3593 101.804 55.6419 101.688 55.9043H104.5V56.9043H100.39L100.51 56.3062C100.628 55.7164 100.935 55.1023 101.321 54.5131C101.711 53.9182 102.201 53.3183 102.719 52.7539Z" fill="#E99486"/>
<path fill-rule="evenodd" clip-rule="evenodd" d="M37.0972 53.1005C36.2822 51.9921 35.2998 50.9112 34.6464 50.2579L35.3536 49.5507C36.0335 50.2307 37.0511 51.3498 37.9028 52.5081C38.3285 53.087 38.7206 53.6863 39.0083 54.2529C39.2897 54.8071 39.5 55.3845 39.5 55.9043V56.3279L36.0822 56.8975L35.9178 55.9111L38.4353 55.4915C38.3741 55.2686 38.2689 55.0053 38.1167 54.7057C37.8628 54.2056 37.5049 53.6549 37.0972 53.1005Z" fill="#E99486"/>
<path fill-rule="evenodd" clip-rule="evenodd" d="M71.3602 82.4641C69.8955 82.3101 68.5562 81.7853 67.7572 81.3414L68.2428 80.4672C68.9438 80.8566 70.1545 81.3318 71.4648 81.4695C72.7736 81.6071 74.12 81.4035 75.1799 80.5202L75.8201 81.2884C74.48 82.4051 72.8264 82.6182 71.3602 82.4641Z" fill="#EA9283"/>
<path fill-rule="evenodd" clip-rule="evenodd" d="M71.7138 77.6293C68.3545 77.6378 64.9401 76.7189 62.8143 75.8685L63.1857 74.9401C65.2266 75.7564 68.5122 76.6374 71.7112 76.6293C74.9191 76.6211 77.914 75.7246 79.5794 73.1339L80.4206 73.6747C78.486 76.684 75.0642 77.6208 71.7138 77.6293Z" fill="#EA9283"/>
<path fill-rule="evenodd" clip-rule="evenodd" d="M68.9398 63.6079C69.1691 61.148 69.4178 58.285 69.5005 56.3826L70.4995 56.426C70.4156 58.3569 70.1645 61.2439 69.9355 63.7007C69.8562 64.5511 69.7794 65.3524 69.7129 66.0461C69.6832 66.3554 69.6556 66.6434 69.6308 66.9048C69.5904 67.3292 69.5573 67.683 69.5344 67.9458C69.5229 68.0774 69.5141 68.1845 69.5081 68.2656C69.5052 68.3062 69.5031 68.3388 69.5017 68.3639L69.5008 68.3831C69.5049 68.3926 69.5136 68.4102 69.5305 68.436C69.5712 68.4983 69.6427 68.5808 69.75 68.6705C69.9642 68.8494 70.2849 69.0266 70.6785 69.1207C71.4391 69.3025 72.5134 69.1837 73.6464 68.0507L74.3536 68.7579C72.9866 70.1249 71.5606 70.3597 70.446 70.0933C69.9021 69.9632 69.4415 69.7158 69.1088 69.4379C68.9428 69.2991 68.7994 69.1451 68.6938 68.9837C68.5938 68.8309 68.4998 68.6289 68.5 68.4039C68.5001 68.2479 68.5565 67.6377 68.6352 66.8101C68.6602 66.5474 68.6879 66.2587 68.7176 65.9488C68.7841 65.2557 68.8607 64.457 68.9398 63.6079Z" fill="#EA9283"/>
<path d="M61.5 53.4043C61.5 55.6134 60.6046 57.4043 59.5 57.4043C58.3954 57.4043 57.5 55.6134 57.5 53.4043C57.5 51.1952 58.3954 49.4043 59.5 49.4043C60.6046 49.4043 61.5 51.1952 61.5 53.4043Z" fill="#3F232F"/>
<path d="M84.5 53.4043C84.5 55.6134 83.6046 57.4043 82.5 57.4043C81.3954 57.4043 80.5 55.6134 80.5 53.4043C80.5 51.1952 81.3954 49.4043 82.5 49.4043C83.6046 49.4043 84.5 51.1952 84.5 53.4043Z" fill="#3F232F"/>
<path d="M80.0019 42.9042C80.0021 44.4343 81.0003 44.6542 82.5018 44.9042C86.0016 45.4869 87.502 47.4044 88.502 47.4044C89.502 47.4044 91.002 46.9044 90.502 44.9042C90.002 42.904 84.4995 40.9043 82.4995 40.9043C81.4995 40.9043 80.0015 40.9043 80.0019 42.9042Z" fill="#3D2035"/>
<path d="M63.0995 42.9042C63.0992 44.4343 62.1011 44.6542 60.5995 44.9042C57.0997 45.4869 55.5993 47.4044 54.5993 47.4044C53.5993 47.4044 52.0993 46.9044 52.5993 44.9042C53.0993 42.904 58.6019 40.9043 60.6019 40.9043C61.6019 40.9043 63.0999 40.9043 63.0995 42.9042Z" fill="#3D2035"/>
<path fill-rule="evenodd" clip-rule="evenodd" d="M42.7775 5.848C58.9207 -5.16444 76.5844 1.56464 86.2917 8.19921L84.4805 2.76562L84.7852 2.95188L84.6623 2.76549C92.0602 4.36111 96.3273 14.4304 97.5361 19.2656C101.888 18.359 103.701 19.9909 104.608 24.8866C105.333 28.8031 103.313 38.6263 101.5 46L99 46.5L95.5 53.5C94.9799 52.3854 94.5595 48.5841 94.0619 44.0849C93.588 39.8008 93.0443 34.8839 92.2778 31.0515C84.6411 35.5641 72.1866 35.2588 64.2966 35.0654C63.9439 35.0567 63.6003 35.0483 63.2667 35.0405C60.4227 34.9744 53.8154 33.1954 47.7036 30.1876C48.1424 35.4021 45.4873 46.6549 43.5 53.5L41.5 46L40 44.5C39.8284 43.4461 39.6087 42.8422 39.2823 41.9453C38.8038 40.6306 38.0962 38.6861 36.9752 33.7709C35.5643 27.5846 36.0955 23.8547 36.8828 21.9889C33.6018 17.3591 34.0439 11.8058 42.7775 5.848Z" fill="black"/>
<path fill-rule="evenodd" clip-rule="evenodd" d="M53.5003 99.5H85.5003C86.0003 100 87.0003 101.4 87.0003 103C87.0003 103.764 87.0732 104.455 87.1355 105.045C87.1604 105.28 87.1835 105.499 87.1997 105.701L132.5 124.904C135.5 128.904 141 138.304 139 143.904H0C1.16667 138.071 4.2 126.104 7 124.904C7.515 124.684 8.91748 124.087 10.9486 123.224C19.7568 119.479 40.3873 110.709 51.729 105.742C51.4512 103.566 51.8567 100.486 53.5003 99.5Z" fill="#705C5A"/>
</svg>

<?xml version="1.0" encoding="UTF-8"?>
<svg id="Layer_1" data-name="Layer 1" xmlns="http://www.w3.org/2000/svg" viewBox="0 0 139.43 143.9">
  <defs>
    <style>
      .cls-1, .cls-2 {
        fill: #f3b29b;
      }

      .cls-3 {
        fill: #3f232f;
      }

      .cls-4 {
        fill: #3b2140;
      }

      .cls-5 {
        fill: #3d2035;
      }

      .cls-2, .cls-6, .cls-7, .cls-8, .cls-9 {
        fill-rule: evenodd;
      }

      .cls-6 {
        fill: #705c5a;
      }

      .cls-7 {
        fill: #ea9283;
      }

      .cls-8 {
        fill: #e99486;
      }
    </style>
  </defs>
  <path d="M103.78,33.77c1.89-8.27,.3-12.15-.73-13.06-2.78,.91-8.63,3.81-9.79,8.16-1.16,4.35,1.82,17.13,3.99,24.62l2.25-5,2-2c.42-2.6,.39-4.46,2.28-12.73Z"/>
  <path d="M36.98,33.77c-1.89-8.27-.3-12.15,.73-13.06,2.78,.91,8.63,3.81,9.79,8.16,1.16,4.35-2.9,20.43-5.08,27.92l-.73-3.99-1.09-.91c-.42-2.6-1.74-9.86-3.63-18.13Z"/>
  <path class="cls-1" d="M86.5,105.4c-2.4-2.4-3.17-13-3-17l-27.5-2c.8,6.8-1,16-3.5,19,21.2,14,31.5,6.67,34,0Z"/>
  <path class="cls-4" d="M55.5,97.4c1-5.5,.5-8.5,.5-11h27v3.5c-4.5,7.5-19.33,8-27.5,7.5Z"/>
  <path class="cls-2" d="M70.5,16.4c-15.7,0-28.14,13.27-27.12,28.94l.2,3.02-1.07-.96c-5.33-3-15.1-5.3-11.5,9.5,2.47,10.16,8.7,13.52,14.09,14.09,1.59,12.72,12.43,22.41,25.41,22.41s23.82-9.69,25.41-22.41c5.39-.57,11.62-3.92,14.09-14.09,3.6-14.8-6.17-12.5-11.5-9.5l-1.07,.96,.2-3.02c1.02-15.67-11.42-28.94-27.12-28.94Z"/>
  <path class="cls-8" d="M102.72,52.75c1.03-1.13,2.21-2.15,2.97-2.74l.61,.79c-.73,.57-1.86,1.55-2.85,2.63-.5,.54-.95,1.1-1.3,1.63-.19,.3-.35,.58-.47,.84h2.81v1h-4.11l.12-.6c.12-.59,.42-1.2,.81-1.79,.39-.59,.88-1.19,1.4-1.76Z"/>
  <path class="cls-8" d="M37.1,53.1c-.81-1.11-1.8-2.19-2.45-2.84l.71-.71c.68,.68,1.7,1.8,2.55,2.96,.43,.58,.82,1.18,1.11,1.74,.28,.55,.49,1.13,.49,1.65v.42l-3.42,.57-.16-.99,2.52-.42c-.06-.22-.17-.49-.32-.79-.25-.5-.61-1.05-1.02-1.61Z"/>
  <path class="cls-7" d="M71.36,82.46c-1.46-.15-2.8-.68-3.6-1.12l.49-.87c.7,.39,1.91,.86,3.22,1,1.31,.14,2.66-.07,3.72-.95l.64,.77c-1.34,1.12-2.99,1.33-4.46,1.18Z"/>
  <path class="cls-7" d="M71.71,77.63c-3.36,0-6.77-.91-8.9-1.76l.37-.93c2.04,.82,5.33,1.7,8.53,1.69,3.21,0,6.2-.9,7.87-3.5l.84,.54c-1.93,3.01-5.36,3.95-8.71,3.95Z"/>
  <path class="cls-7" d="M68.94,63.61c.23-2.46,.48-5.32,.56-7.23l1,.04c-.08,1.93-.33,4.82-.56,7.27-.08,.85-.16,1.65-.22,2.35-.03,.31-.06,.6-.08,.86-.04,.42-.07,.78-.1,1.04-.01,.13-.02,.24-.03,.32,0,.04,0,.07,0,.1v.02s.01,.03,.03,.05c.04,.06,.11,.14,.22,.23,.21,.18,.53,.36,.93,.45,.76,.18,1.83,.06,2.97-1.07l.71,.71c-1.37,1.37-2.79,1.6-3.91,1.34-.54-.13-1-.38-1.34-.66-.17-.14-.31-.29-.42-.45-.1-.15-.19-.35-.19-.58,0-.16,.06-.77,.14-1.59,.03-.26,.05-.55,.08-.86,.07-.69,.14-1.49,.22-2.34Z"/>
  <path class="cls-3" d="M61.5,53.4c0,2.21-.9,4-2,4s-2-1.79-2-4,.9-4,2-4,2,1.79,2,4Z"/>
  <path class="cls-3" d="M84.5,53.4c0,2.21-.9,4-2,4s-2-1.79-2-4,.9-4,2-4,2,1.79,2,4Z"/>
  <path class="cls-5" d="M80,42.9c0,1.53,1,1.75,2.5,2,3.5,.58,5,2.5,6,2.5s2.5-.5,2-2.5c-.5-2-6-4-8-4-1,0-2.5,0-2.5,2Z"/>
  <path class="cls-5" d="M63.1,42.9c0,1.53-1,1.75-2.5,2-3.5,.58-5,2.5-6,2.5s-2.5-.5-2-2.5c.5-2,6-4,8-4,1,0,2.5,0,2.5,2Z"/>
  <path class="cls-9" d="M42.78,5.85c16.14-11.01,33.81-4.28,43.51,2.35l-1.81-5.43,.3,.19-.12-.19c7.4,1.6,11.67,11.66,12.87,16.5,4.35-.91,6.16,.73,7.07,5.62,.72,3.92-1.29,13.74-3.11,21.11l-2.5,.5-3.5,7c-.52-1.11-.94-4.92-1.44-9.42-.47-4.28-1.02-9.2-1.78-13.03-7.64,4.51-20.09,4.21-27.98,4.01-.35,0-.7-.02-1.03-.02-2.84-.07-9.45-1.85-15.56-4.85,.44,5.21-2.22,16.47-4.2,23.31l-2-7.5-1.5-1.5c-.17-1.05-.39-1.66-.72-2.55-.48-1.31-1.19-3.26-2.31-8.17-1.41-6.19-.88-9.92-.09-11.78-3.28-4.63-2.84-10.18,5.89-16.14Z"/>
  <path class="cls-6" d="M53.5,99.5h32c.5,.5,1.5,1.9,1.5,3.5,0,.76,.07,1.46,.14,2.04,.02,.24,.05,.45,.06,.66l45.3,19.2c3,4,8.5,13.4,6.5,19H0c1.17-5.83,4.2-17.8,7-19,.51-.22,1.92-.82,3.95-1.68,8.81-3.75,29.44-12.51,40.78-17.48-.28-2.18,.13-5.26,1.77-6.24Z"/>
</svg>
